X: 27329
T: Mist Covered Mountain, The
R: jig
M: 6/8
K: Adorian
|:EAA ABd|eAA AGE|G2G GAB|dBA GED|
EAA ABd|eAA ABd|efg dBG|1 BAG A2G:|2 BAG A2e||
age a2b|age edB|AGE G2A|BAB deb|
age a2b|age edB|AGE G2A|BAG A2e|
age a2b|age edB|AGE G2A|BAB GED|
EDE G2A|BAG ABd|efg dBG|BAG A2G||

